src/assets/KKH.svg

<svg xmlns="http://www.w3.org/2000/svg" viewBox="0 0 808.47 420.16"><title>KKH</title><g id="Layer_2" data-name="Layer 2"><g id="Layer_1-2" data-name="Layer 1"><path d="M747.51,420.16V238.66H549.26v181.5H489.42L332.36,217.7,304.73,244l.58,176.13H245.68L88.61,217.7,61,244l.58,176.13H0V0H61.51V164.68L228.58,0h76.67V164.69L472.33,0h76.93V179.33H747.51V0h61V420.16ZM488.3,319.69V66.37L376.76,176.77Zm-244.56-1.05V67.17L133,176.77Z"/><path d="M764.68,17.17V196.5H532.09V17.17H479.37l-190.75,188L287,210.08l1.09-19V17.17H235.62l-190.74,188-1.63,4.89,1.09-19V17.17H17.17V403H44.34L43.79,236.7l46.74-44.55L254.09,403h34l-.54-166.29,46.73-44.55L497.84,403h34.25V221.49H764.68V403H791.3V17.17ZM260.91,368.56,110.09,175.3,260.91,26Zm244.56,1L353.83,175.3,505.47,25.21Z"/></g></g></svg>

<svg width="809" height="421" viewBox="0 0 809 421" fill="none" xmlns="http://www.w3.org/2000/svg">
<path d="M747.51 420.16V238.66H549.26V420.16H489.42L332.36 217.7L304.73 244L305.31 420.13H245.68L88.61 217.7L61 244L61.58 420.13H0V0H61.51V164.68L228.58 0H305.25V164.69L472.33 0H549.26V179.33H747.51V0H808.51V420.16H747.51ZM488.3 319.69V66.37L376.76 176.77L488.3 319.69ZM243.74 318.64V67.17L133 176.77L243.74 318.64Z" fill="#5CA4A9"/>
<path d="M764.68 17.17V196.5H532.09V17.17H479.37L288.62 205.17L287 210.08L288.09 191.08V17.17H235.62L44.88 205.17L43.25 210.06L44.34 191.06V17.17H17.17V403H44.34L43.79 236.7L90.53 192.15L254.09 403H288.09L287.55 236.71L334.28 192.16L497.84 403H532.09V221.49H764.68V403H791.3V17.17H764.68ZM260.91 368.56L110.09 175.3L260.91 26V368.56ZM505.47 369.56L353.83 175.3L505.47 25.21V369.56Z" fill="#5CA4A9"/>
</svg>
